X: 10
T: The Band of the Dead Is Coming
N: Derived from pawnee10.krn
O: Oklahoma, U.S.A.
N: from Pawnee Music by Frances Densmore, 1926
Z: transcribed to **kern format by David Huron, August 2000
C: Skidi and Chaui Bands, 1919
L: 1/8
M: 2/4
Q: 1/4=88
K: E clef=treble
%%linebreak <none>
B> c (3B A A | 
F> G (3F E F | 
(3F C C (3C B, B, | 
(3C B, B, (3B, B, B,[M:3/4] | 
(3C B, C (3C B, B, B,3/ C/ | 
(3C B, B, B,> B,B,2[M:2/4] | 
(3c B c (3c B B | 
B> c (3c B B[M:3/4] | 
B> B (3c B BB2[M:2/4] | 
c/ B c/ (3B A A | 
F> G (3F E F | 
(3F C C (3C B, B, | 
(3C B, B, (3B, B, B,[M:3/4] | 
(3C B, C (3C B, B, B,3/ C/ | 
(3C B, B, B,> B,B,2 |]  



